X:1
T:Title
L:1/8
Q:1/4=90
M:4/4
K:D
V:1 treble nm="Church Organ, Staff"
V:1
 AGFE FG A2 | Bc d2- d/ z/ c B2 | cB A2 B2 A2 | E2 F2 z4 | FEDC DE F2 | GA B2- B/ z/ A G2 | %6
w: By~Rev.~R.~F.~Smith * * * * * *||||||
 AB A2 F2 ^G2 | c2 F2 z4 | GFE^D EF G2 | AB c2- c/ z/ B ^A2 | F2 d2 B2 G2 | E2 A4 z2 | %12
w: ||||||
 A2 d2- d/ z/ c B2 | A2 G2 F2 E2 | B2 A2 D2 F2 | E2 D2 z4 |] %16
w: ||||

